; generated by PrusaSlicer 2.8.1+MacOS-arm64 on 2024-11-07 at 06:27:14 UTC


;
;

;
;

;
;

;
;
; 

; external perimeters extrusion width = 0.25mm
; perimeters extrusion width = 0.25mm
; infill extrusion width = 0.25mm
; solid infill extrusion width = 0.25mm
; top infill extrusion width = 0.27mm
; support material extrusion width = 0.25mm
; first layer extrusion width = 0.32mm

M73 P0 R83
M73 Q0 S84
M201 X4000 Y4000 Z400 E5000 ; sets maximum accelerations, mm/sec^2
M203 X400 Y400 Z12 E80 ; sets maximum feedrates, mm / sec
M204 P4000 R1250 T4000 ; sets acceleration (P, T) and retract acceleration (R), mm/sec^2
M205 X8.00 Y8.00 Z2.00 E10.00 ; sets the jerk limits, mm/sec
M205 S0 T0 ; sets the minimum extruding and travel feed rate, mm/sec

M486 S0
M486 APrototyp 3 Part 6 (14).stl
M486 S-1

;TYPE:Custom
M862.3 P "MINI" ; printer model check
M862.1 P0.25 ; nozzle diameter check
M862.5 P2 ; g-code level check
M862.6 P"Input shaper" ; FW feature check
M115 U6.0.4+14924
G90 ; use absolute coordinates
M83 ; extruder relative mode
M104 S170 ; set extruder temp for bed leveling
M140 S60 ; set bed temp
M109 R170 ; wait for bed leveling temp
M190 S60 ; wait for bed temp
M569 S1 X Y ; set stealthchop for X Y
M204 T1250 ; set travel acceleration
G28 ; home all without mesh bed level
G29 ; mesh bed leveling 
M104 S230 ; set extruder temp
G92 E0

G1 X0 Y-2 Z3 F2400

M109 S230 ; wait for extruder temp

; intro line
G1 X10 Z0.2 F1000
G1 X70 E8 F900
M73 Q0 S83
G1 X140 E10 F700
G92 E0

M569 S0 X Y ; set spreadcycle for X Y
M204 T4000 ; restore travel acceleration
M572 W0.06 ; set smooth time
M221 S95 ; set flow
G21 ; set units to millimeters
G90 ; use absolute coordinates
M83 ; use relative distances for extrusion
M572 S0.85
M107
;LAYER_CHANGE
;Z:0.2
;HEIGHT:0.2
G1 E-2.5 F4200
G1 Z.35 F720
G1 X80.786 Y81.162 F18000
G1 Z.2 F720
G1 E2.5 F2400
M204 P500
;TYPE:Skirt/Brim
;WIDTH:0.32
G1 F1200
G3 X84.379 Y79.476 I4.147 J4.167 E.09327
G1 X95.573 Y79.472 E.2579
G1 X96.534 Y79.63 E.02244
G3 X100.919 Y84.717 I-1.495 J5.721 E.16455
G1 X100.938 Y95.051 E.23809
G3 X95.388 Y100.542 I-5.882 J-.395 E.19659
G1 X84.591 Y100.539 E.24875
G3 X79.058 Y94.989 I.348 J-5.881 E.19754
G1 X79.064 Y85.002 E.23009
G3 X80.76 Y81.189 I5.869 J.327 E.09829
M204 P1500
M204 T3000
G1 X80.76 Y81.189 F18000
G1 X80.956 Y81.384
M204 P500
G1 F1200
G3 X84.417 Y79.751 I3.976 J3.943 E.08998
G1 X95.539 Y79.747 E.25624
G3 X100.642 Y84.731 I-.476 J5.592 E.17809
G1 X100.661 Y95.042 E.23756
G3 X95.358 Y100.267 I-5.604 J-.384 E.18749
G1 X84.618 Y100.263 E.24744
G3 X79.333 Y94.958 I.32 J-5.604 E.18887
G1 X79.34 Y85.028 E.22878
G3 X80.93 Y81.41 I5.592 J.299 E.09305
M204 P1500
G1 X80.93 Y81.41 F18000
G1 X81.127 Y81.604
M204 P500
G1 F1200
G3 X84.454 Y80.026 I3.803 J3.722 E.08663
G1 X95.506 Y80.022 E.25463
G1 X96.398 Y80.167 E.02082
G3 X100.365 Y84.745 I-1.352 J5.179 E.14835
G1 X100.384 Y95.032 E.23701
G3 X95.328 Y99.991 I-5.326 J-.372 E.1784
G1 X84.628 Y99.986 E.24652
G3 X79.609 Y94.928 I.309 J-5.326 E.17977
G1 X79.616 Y85.054 E.22749
G3 X81.101 Y81.631 I5.314 J.272 E.08783
M204 P1500
G1 X81.101 Y81.631 F18000
G1 X81.3 Y81.823
M204 P500
G1 F1200
G3 X84.49 Y80.301 I3.628 J3.502 E.0832
G1 X95.473 Y80.298 E.25304
G3 X100.088 Y84.759 I-.406 J5.037 E.16023
G1 X100.107 Y95.022 E.23645
G3 X95.298 Y99.715 I-5.047 J-.361 E.1693
G1 X84.637 Y99.709 E.24562
G3 X79.885 Y94.898 I.298 J-5.048 E.17065
M73 P0 R82
G1 X79.892 Y85.079 E.22622
G3 X81.274 Y81.85 I5.036 J.246 E.08265
M204 P1500
G1 X81.274 Y81.85 F18000
G1 X81.474 Y82.04
M204 P500
G1 F1200
G3 X84.526 Y80.576 I3.453 J3.283 E.07973
G1 X95.44 Y80.573 E.25145
G1 X96.263 Y80.704 E.0192
G3 X99.811 Y84.773 I-1.212 J4.638 E.13212
G1 X99.829 Y95.013 E.23592
G3 X95.269 Y99.44 I-4.768 J-.35 E.16016
G1 X84.646 Y99.431 E.24475
G3 X80.16 Y94.869 I.287 J-4.768 E.16151
G1 X80.168 Y85.104 E.22498
G3 X81.449 Y82.068 I4.759 J.219 E.07752
M204 P1500
G1 X81.449 Y82.068 F18000
G1 X81.651 Y82.257
M204 P500
G1 F1200
G3 X84.562 Y80.851 I3.275 J3.065 E.07619
G1 X95.408 Y80.848 E.24988
G3 X99.536 Y84.814 I-.337 J4.483 E.14297
G1 X99.554 Y94.983 E.23429
G3 X95.259 Y99.163 I-4.491 J-.318 E.15109
G1 X84.673 Y99.156 E.24389
G3 X80.437 Y94.859 I.259 J-4.492 E.15237
G1 X80.444 Y85.129 E.22417
G3 X81.625 Y82.284 I4.482 J.193 E.07244
M204 P1500
G1 X81.829 Y82.471 F18000
M204 P500
G1 F1200
G3 X84.597 Y81.126 I3.095 J2.85 E.07259
G1 X95.377 Y81.124 E.24836
G1 X96.107 Y81.237 E.01702
G3 X99.262 Y84.854 I-1.049 J4.099 E.11758
G1 X99.278 Y94.954 E.2327
G3 X95.25 Y98.885 I-4.213 J-.287 E.14193
G1 X84.7 Y98.88 E.24306
G3 X80.715 Y94.849 I.23 J-4.213 E.14319
G1 X80.72 Y85.153 E.22339
G3 X81.803 Y82.499 I4.204 J.168 E.06739
M204 P1500
G1 X81.803 Y82.499 F18000
G1 X82.008 Y82.684
M204 P500
G1 F1200
G3 X84.631 Y81.401 I2.915 J2.636 E.06893
G1 X95.346 Y81.399 E.24687
G3 X98.987 Y84.893 I-.272 J3.928 E.1262
G1 X99.002 Y94.924 E.23111
G3 X95.24 Y98.608 I-3.934 J-.255 E.13283
G1 X84.726 Y98.604 E.24223
G3 X80.992 Y94.84 I.202 J-3.935 E.13399
G1 X80.996 Y85.176 E.22265
G3 X81.983 Y82.712 I3.927 J.144 E.06238
M204 P1500
G1 X81.983 Y82.712 F18000
G1 X82.19 Y82.896
M204 P500
G1 F1200
G3 X84.664 Y81.677 I2.732 J2.423 E.06516
G1 X95.315 Y81.675 E.24539
G1 X95.954 Y81.77 E.01488
G3 X98.713 Y84.932 I-.89 J3.561 E.10292
G1 X98.727 Y94.896 E.22956
G3 X95.23 Y98.331 I-3.657 J-.225 E.12371
G1 X84.752 Y98.328 E.24141
G3 X81.269 Y94.83 I.174 J-3.657 E.12481
G1 X81.273 Y85.198 E.22191
G3 X82.165 Y82.924 I3.649 J.121 E.05738
M204 P1500
G1 X82.165 Y82.924 F18000
G1 X82.374 Y83.105
M204 P500
G1 F1200
G3 X84.697 Y81.952 I2.547 J2.213 E.06133
G1 X95.286 Y81.951 E.24396
G3 X98.438 Y84.97 I-.209 J3.372 E.10932
G1 X98.451 Y94.868 E.22804
G3 X95.221 Y98.054 I-3.379 J-.195 E.11455
G1 X84.777 Y98.052 E.24062
G3 X81.546 Y94.82 I.148 J-3.379 E.11561
G1 X81.549 Y85.22 E.22118
G3 X82.35 Y83.134 I3.372 J.098 E.05247
M204 P1500
G1 X82.35 Y83.134 F18000
G1 X82.561 Y83.313
M204 P500
G1 F1200
G3 X84.729 Y82.227 I2.359 J2.004 E.0574
G1 X95.257 Y82.226 E.24256
G1 X95.803 Y82.304 E.01271
G3 X98.163 Y85.008 I-.734 J3.022 E.08814
G1 X98.175 Y94.84 E.22652
G3 X95.211 Y97.777 I-3.101 J-.165 E.10541
G1 X84.801 Y97.776 E.23984
G3 X81.823 Y94.811 I.122 J-3.101 E.10636
G1 X81.825 Y85.241 E.22049
G3 X82.536 Y83.342 I3.095 J.076 E.0476
M204 P1500
G1 X82.536 Y83.342 F18000
G1 X82.749 Y83.518
M204 P500
G1 F1200
G3 X84.76 Y82.503 I2.17 J1.798 E.05339
G1 X95.229 Y82.502 E.2412
G3 X97.888 Y85.044 I-.149 J2.818 E.09231
G1 X97.899 Y94.814 E.22509
G3 X95.202 Y97.5 I-2.823 J-.138 E.09621
M73 P1 R82
G1 X84.825 Y97.499 E.23908
G3 X82.1 Y94.801 I.096 J-2.822 E.09712
M73 Q1 S83
G1 X82.102 Y85.261 E.21979
G3 X82.726 Y83.547 I2.817 J.055 E.0428
M204 P1500
G1 X82.726 Y83.547 F18000
G1 X82.941 Y83.721
M204 P500
G1 F1200
G3 X84.79 Y82.778 I1.977 J1.595 E.04926
G1 X95.201 Y82.778 E.23986
G1 X95.657 Y82.839 E.0106
G3 X97.613 Y85.08 I-.582 J2.483 E.07317
G1 X97.623 Y94.789 E.22369
G3 X95.192 Y97.223 I-2.546 J-.111 E.087
G1 X84.847 Y97.223 E.23834
G3 X82.377 Y94.791 I.073 J-2.544 E.08785
G1 X82.378 Y85.28 E.21913
G3 X82.918 Y83.75 I2.54 J.036 E.03805
M204 P1500
G1 X82.918 Y83.75 F18000
G1 X83.135 Y83.921
M204 P500
G1 F1200
G3 X84.819 Y83.054 I1.783 J1.394 E.04502
G1 X95.192 Y83.055 E.23899
G3 X97.338 Y85.114 I-.109 J2.261 E.07475
G1 X97.346 Y94.78 E.2227
G3 X95.182 Y96.946 I-2.266 J-.1 E.07743
G1 X84.87 Y96.947 E.23758
G3 X82.654 Y94.781 I.049 J-2.266 E.07861
G1 X82.655 Y85.297 E.2185
G3 X83.113 Y83.95 I2.263 J.018 E.03334
M204 P1500
G1 X83.113 Y83.95 F18000
G1 X83.333 Y84.117
M204 P500
G1 F1200
G3 X84.828 Y83.331 I1.583 J1.197 E.0402
G1 X95.182 Y83.332 E.23855
G3 X97.063 Y85.148 I-.096 J1.982 E.06576
G1 X97.069 Y94.771 E.22171
G3 X95.172 Y96.669 I-1.986 J-.088 E.06787
G1 X84.877 Y96.67 E.23719
G3 X82.931 Y94.772 I.04 J-1.987 E.06896
G1 X82.931 Y85.314 E.21791
G3 X83.311 Y84.147 I1.985 E.02875
M204 P1500
G1 X83.311 Y84.147 F18000
G1 X83.534 Y84.31
M204 P500
G1 F1200
G3 X84.838 Y83.608 I1.38 J1.003 E.03529
G1 X95.173 Y83.609 E.23811
G3 X96.788 Y85.18 I-.086 J1.703 E.0567
G1 X96.792 Y94.762 E.22076
G3 X95.163 Y96.392 I-1.707 J-.077 E.05827
M73 Q1 S82
G1 X84.885 Y96.393 E.2368
G3 X83.208 Y94.762 I.029 J-1.708 E.05937
G1 X83.208 Y85.329 E.21733
G3 X83.512 Y84.34 I1.706 J-.016 E.02422
M204 P1500
G1 X83.512 Y84.34 F18000
G1 X83.739 Y84.498
M204 P500
G1 F1200
G3 X84.848 Y83.885 I1.174 J.814 E.03025
G1 X95.163 Y83.886 E.23765
G3 X96.512 Y85.21 I-.073 J1.424 E.0476
G1 X96.515 Y94.753 E.21986
G3 X95.153 Y96.115 I-1.427 J-.065 E.0487
G1 X84.893 Y96.116 E.23638
G3 X83.485 Y94.752 I.019 J-1.428 E.04978
G1 X83.485 Y85.342 E.2168
G3 X83.719 Y84.529 I1.428 J-.03 E.01979
M204 P1500
G1 X83.719 Y84.529 F18000
G1 X83.95 Y84.681
M204 P500
G1 F1200
G3 X84.857 Y84.162 I.962 J.631 E.02499
G1 X95.154 Y84.163 E.23724
G3 X96.236 Y85.239 I-.063 J1.146 E.03846
G1 X96.238 Y94.743 E.21897
G3 X95.143 Y95.838 I-1.148 J-.053 E.03915
G1 X84.9 Y95.839 E.23599
G3 X83.762 Y94.743 I.01 J-1.149 E.04014
G1 X83.762 Y85.353 E.21634
G3 X83.93 Y84.712 I1.15 J-.041 E.01549
M204 P1500
G1 E-2.5 F4200
G1 X83.93 Y84.712 Z.35 F18000
M486 S0
G1 X78.981 Y83.594
G1 Z.2 F720
G1 E2.5 F2400
M204 P500
;TYPE:Support material
G1 F1200
G2 X78.74 Y85.299 I6.004 J1.719 E.0398
G1 X78.74 Y94.665 E.21579
G2 X79.009 Y96.498 I6.247 J.02 E.04284
G1 X78.641 Y96.259 E.01011
G3 X78.208 Y93.967 I9.209 J-2.924 E.05387
G3 X78.265 Y92.523 I8.462 J-.391 E.03334
G1 X78.265 Y87.064 E.12577
G3 X78.288 Y85.256 I5.441 J-.835 E.04185
G1 X78.618 Y83.762 E.03525
G1 X79.008 Y83.507 E.01074
G1 X78.993 Y83.555 E.00116
M204 P1500
G1 E-2.5 F4200
G1 X78.993 Y83.555 Z.35 F18000
G1 X101.359 Y83.733
G1 Z.2 F720
G1 E2.5 F2400
M204 P500
G1 F1200
G3 X101.792 Y86.046 I-9.058 J2.892 E.05435
G3 X101.735 Y87.064 I-3.762 J.301 E.02356
G1 X101.735 Y92.936 E.13529
G3 X101.534 Y95.547 I-6.103 J.845 E.0608
G1 X101.068 Y96.223 E.01892
G2 X101.26 Y94.701 I-6.002 J-1.531 E.03543
G1 X101.26 Y85.265 E.2174
G2 X100.989 Y83.496 I-6.234 J.048 E.04137
G1 X101.324 Y83.71 E.00916
M204 P1500
G1 E-2.5 F4200
G1 X101.324 Y83.71 Z.35 F18000
G1 X84.671 Y94.804
G1 Z.2 F720
G1 E2.5 F2400
M204 P500
;TYPE:Perimeter
;WIDTH:0.319999
G1 F1200
G1 X84.615 Y94.665 E.00345
G1 X84.614 Y85.443 E.21247
G3 X84.715 Y85.102 I.828 J.059 E.00826
G1 X84.935 Y85.015 E.00545
G1 X95.022 Y85.015 E.2324
G1 X95.199 Y85.045 E.00414
G1 X95.325 Y85.155 E.00385
G1 X95.385 Y85.375 E.00525
G1 X95.385 Y94.665 E.21403
G1 X95.289 Y94.898 E.00581
G1 X95.059 Y94.985 E.00567
G1 X85.008 Y94.986 E.23157
G3 X84.707 Y94.892 I.116 J-.901 E.0073
G1 X84.685 Y94.838 E.00134
M204 P1500
G1 X84.685 Y94.838 F18000
G1 X84.393 Y94.915
M204 P500
G1 F1200
G3 X84.338 Y94.696 I.559 J-.258 E.00523
G1 X84.337 Y85.443 E.21318
G1 X84.379 Y85.114 E.00764
G1 X84.512 Y84.904 E.00573
G3 X84.904 Y84.738 I.46 J.539 E.00996
G1 X95.022 Y84.738 E.23311
G1 X95.309 Y84.785 E.0067
G3 X95.613 Y85.087 I-.301 J.607 E.01005
G1 X95.662 Y85.375 E.00673
G1 X95.662 Y94.614 E.21286
G1 X95.614 Y94.912 E.00695
G1 X95.414 Y95.149 E.00714
G1 X95.092 Y95.262 E.00786
G1 X85.008 Y95.263 E.23233
G1 X84.688 Y95.212 E.00747
G3 X84.41 Y94.948 I.264 J-.555 E.00898
M204 P1500
G1 X84.41 Y94.948 F18000
G1 X84.128 Y95.022
M204 P500
;TYPE:External perimeter
G1 F1200
G1 X84.061 Y94.727 E.00697
G1 X84.06 Y85.443 E.2139
G1 X84.113 Y85.015 E.00994
G1 X84.31 Y84.707 E.00842
G1 X84.575 Y84.528 E.00737
G1 X84.873 Y84.461 E.00704
G1 X95.022 Y84.461 E.23382
G1 X95.419 Y84.526 E.00927
G1 X95.692 Y84.708 E.00756
G1 X95.872 Y84.975 E.00742
G1 X95.939 Y85.375 E.00934
G1 X95.939 Y94.614 E.21286
G1 X95.873 Y95.023 E.00954
G1 X95.691 Y95.293 E.0075
G1 X95.454 Y95.459 E.00667
G1 X95.126 Y95.539 E.00778
G1 X85.008 Y95.54 E.23311
G1 X84.579 Y95.473 E.01
G1 X84.308 Y95.292 E.00751
G1 X84.148 Y95.053 E.00663
M204 P1500
G1 X84.082 Y94.812 F18000
G1 E-2.5 F4200
G1 Z.35 F720
G1 X94.585 Y85.131 F18000
G1 Z.2 F720
G1 E2.5 F2400
M204 P500
;TYPE:Solid infill
;WIDTH:0.321476
G1 F1200
G1 X95.149 Y85.695 E.01847
G1 X95.149 Y86.089 E.00913
G1 X94.316 Y85.255 E.0273
G1 X93.922 Y85.255 E.00913
G1 X95.149 Y86.483 E.04021
G1 X95.149 Y86.877 E.00913
G1 X93.527 Y85.255 E.05313
G1 X93.133 Y85.255 E.00913
G1 X95.149 Y87.271 E.06604
G1 X95.149 Y87.665 E.00913
G1 X92.739 Y85.254 E.07896
G1 X92.345 Y85.254 E.00913
G1 X95.149 Y88.059 E.09186
G1 X95.149 Y88.453 E.00913
G1 X91.951 Y85.254 E.10477
G1 X91.557 Y85.254 E.00913
G1 X95.149 Y88.846 E.11766
G1 X95.149 Y89.24 E.00913
G1 X91.163 Y85.254 E.13057
G1 X90.769 Y85.253 E.00913
G1 X95.149 Y89.634 E.14349
G1 X95.149 Y90.028 E.00913
G1 X90.374 Y85.253 E.15641
G1 X89.98 Y85.253 E.00913
G1 X95.149 Y90.422 E.16932
G1 X95.149 Y90.816 E.00913
G1 X89.586 Y85.253 E.18222
G1 X89.192 Y85.253 E.00913
G1 X95.149 Y91.21 E.19513
G1 X95.149 Y91.604 E.00913
G1 X88.798 Y85.253 E.20803
G1 X88.404 Y85.252 E.00913
G1 X95.149 Y91.998 E.22096
G1 X95.149 Y92.392 E.00913
G1 X88.01 Y85.252 E.23386
G1 X87.616 Y85.252 E.00913
G1 X95.149 Y92.786 E.24677
G1 X95.149 Y93.18 E.00913
G1 X87.221 Y85.252 E.25969
G1 X86.827 Y85.252 E.00913
G1 X95.149 Y93.574 E.2726
G1 X95.149 Y93.968 E.00913
G1 X86.433 Y85.251 E.28552
G1 X86.039 Y85.251 E.00913
M73 P1 R81
G1 X95.149 Y94.362 E.29842
G3 X95.134 Y94.706 I-1.386 J.112 E.008
G1 X95.12 Y94.727 E.00058
G1 X85.645 Y85.251 E.31038
G1 X85.251 Y85.251 E.00913
G1 X94.749 Y94.749 E.31112
G1 X94.355 Y94.749 E.00913
G1 X84.883 Y85.277 E.31027
G2 X84.85 Y85.638 I.861 J.261 E.00845
G1 X93.962 Y94.749 E.29846
G1 X93.568 Y94.75 E.00913
G1 X84.85 Y86.032 E.28557
G1 X84.85 Y86.426 E.00913
G1 X93.174 Y94.75 E.27266
G1 X92.78 Y94.75 E.00913
G1 X84.85 Y86.82 E.25976
G1 X84.85 Y87.214 E.00913
G1 X92.386 Y94.75 E.24685
G1 X91.992 Y94.75 E.00913
G1 X84.85 Y87.608 E.23394
G1 X84.85 Y88.002 E.00913
G1 X91.598 Y94.75 E.22104
G1 X91.204 Y94.75 E.00913
G1 X84.85 Y88.395 E.20815
G1 X84.85 Y88.789 E.00913
G1 X90.81 Y94.75 E.19524
G1 X90.416 Y94.75 E.00913
G1 X84.85 Y89.183 E.18234
G1 X84.85 Y89.577 E.00913
G1 X90.023 Y94.75 E.16945
G1 X89.629 Y94.75 E.00913
G1 X84.85 Y89.971 E.15654
G1 X84.85 Y90.365 E.00913
G1 X89.235 Y94.75 E.14364
G1 X88.841 Y94.75 E.00913
G1 X84.85 Y90.759 E.13073
G1 X84.85 Y91.153 E.00913
G1 X88.447 Y94.75 E.11782
G1 X88.053 Y94.75 E.00913
G1 X84.85 Y91.547 E.10492
G1 X84.85 Y91.941 E.00913
G1 X87.659 Y94.75 E.09201
G1 X87.265 Y94.75 E.00913
G1 X84.85 Y92.335 E.07911
G1 X84.85 Y92.729 E.00913
G1 X86.871 Y94.75 E.0662
G1 X86.477 Y94.75 E.00913
G1 X84.85 Y93.123 E.05329
G1 X84.851 Y93.517 E.00913
G1 X86.084 Y94.75 E.04039
G1 X85.69 Y94.75 E.00913
G1 X84.851 Y93.911 E.02748
G1 X84.851 Y94.305 E.00913
G1 X85.42 Y94.875 E.01865
M204 P1500
M106 S84.15
;LAYER_CHANGE
;Z:0.25
;HEIGHT:0.05
;BEFORE_LAYER_CHANGE
G92 E0.0
;0.25
M201 X3999.74 Y3999.74

G1 E-2.5 F4200
G1 Z.25 F720
;AFTER_LAYER_CHANGE
;0.25
M74 W0.113501

M104 S220 ; set temperature
G1 X85.42 Y94.875 Z.25 F18000
G1 X84.542 Y94.766
G1 E2.5 F2400
M204 P1200
;TYPE:Perimeter
;WIDTH:0.249999
G1 F3170
G1 X84.504 Y94.641 E.00065
G1 X84.504 Y85.379 E.04607
G1 X84.541 Y85.158 E.00111
G1 X84.69 Y84.985 E.00114
G1 X84.925 Y84.904 E.00124
G1 X95.065 Y84.904 E.05043
G1 X95.306 Y84.984 E.00126
G1 X95.447 Y85.131 E.00101
G1 X95.496 Y85.387 E.0013
G1 X95.496 Y94.592 E.04578
G1 X95.456 Y94.849 E.00129
G1 X95.311 Y95.013 E.00109
G1 X95.041 Y95.096 E.0014
G1 X85.008 Y95.096 E.0499
G1 X84.758 Y95.059 E.00126
G1 X84.586 Y94.91 E.00113
G1 X84.553 Y94.802 E.00056
M204 P1500
G1 X84.553 Y94.802 F18000
G1 X84.294 Y94.815
M204 P1200
G1 F3170
G1 X84.264 Y94.664 E.00077
G1 X84.265 Y85.379 E.04618
G1 X84.317 Y85.063 E.00159
G1 X84.456 Y84.854 E.00125
G1 X84.651 Y84.722 E.00117
G1 X84.898 Y84.665 E.00126
G1 X95.013 Y84.665 E.05031
G1 X95.338 Y84.718 E.00164
G3 X95.669 Y85.03 I-.332 J.682 E.0023
G1 X95.735 Y85.387 E.00181
G1 X95.735 Y94.592 E.04578
G1 X95.679 Y94.946 E.00178
G1 X95.545 Y95.144 E.00119
G1 X95.341 Y95.281 E.00122
G1 X95.064 Y95.336 E.0014
G1 X85.008 Y95.335 E.05002
G1 X84.663 Y95.283 E.00174
G1 X84.455 Y95.145 E.00124
G1 X84.319 Y94.941 E.00122
G1 X84.302 Y94.852 E.00045
M204 P1500
G1 X84.302 Y94.852 F18000
G1 X84.059 Y94.861
M204 P1000
;TYPE:External perimeter
G1 F2400
G1 X84.025 Y94.688 E.00088
