; generated by PrusaSlicer 2.8.1+MacOS-arm64 on 2024-10-27 at 11:39:36 UTC


;
;

;
;

;
;

;
;
; 

; external perimeters extrusion width = 0.27mm
; perimeters extrusion width = 0.27mm
; infill extrusion width = 0.27mm
; solid infill extrusion width = 0.27mm
; top infill extrusion width = 0.27mm
; first layer extrusion width = 0.32mm

M73 P0 R18
M73 Q0 S18
M201 X4000 Y4000 Z400 E5000 ; sets maximum accelerations, mm/sec^2
M203 X400 Y400 Z12 E80 ; sets maximum feedrates, mm / sec
M204 P4000 R1250 T4000 ; sets acceleration (P, T) and retract acceleration (R), mm/sec^2
M205 X8.00 Y8.00 Z2.00 E10.00 ; sets the jerk limits, mm/sec
M205 S0 T0 ; sets the minimum extruding and travel feed rate, mm/sec

M486 S0
M486 APart Studio 1 Part 11.stl
M486 S-1

;TYPE:Custom
M862.3 P "MINI" ; printer model check
M862.1 P0.25 ; nozzle diameter check
M862.5 P2 ; g-code level check
M862.6 P"Input shaper" ; FW feature check
M115 U6.0.4+14924
G90 ; use absolute coordinates
M83 ; extruder relative mode
M104 S170 ; set extruder temp for bed leveling
M140 S60 ; set bed temp
M109 R170 ; wait for bed leveling temp
M190 S60 ; wait for bed temp
M569 S1 X Y ; set stealthchop for X Y
M204 T1250 ; set travel acceleration
G28 ; home all without mesh bed level
G29 ; mesh bed leveling 
M104 S230 ; set extruder temp
G92 E0

G1 X0 Y-2 Z3 F2400

M109 S230 ; wait for extruder temp

; intro line
G1 X10 Z0.2 F1000
G1 X70 E8 F900
G1 X140 E10 F700
G92 E0

M569 S0 X Y ; set spreadcycle for X Y
M204 T4000 ; restore travel acceleration
M572 W0.06 ; set smooth time
M221 S95 ; set flow
G21 ; set units to millimeters
G90 ; use absolute coordinates
M83 ; use relative distances for extrusion
M572 S0.85
M107
;LAYER_CHANGE
;Z:0.2
;HEIGHT:0.2
G1 E-2.5 F4200
G1 Z.35 F720
M486 S0
G1 X98.808 Y84.02 F18000
G1 Z.2 F720
M73 P1 R18
M73 Q1 S18
G1 E2.5 F2400
M204 P500
;TYPE:Perimeter
;WIDTH:0.319999
G1 F1200
G1 X98.963 Y84.145 E.00459
G1 X99.249 Y84.22 E.00681
G1 X99.762 Y84.232 E.01182
G1 X100.285 Y84.348 E.01234
G1 X100.765 Y84.573 E.01221
G1 X101.178 Y84.89 E.01199
G1 X101.459 Y85.208 E.00978
G1 X101.727 Y85.673 E.01237
G1 X101.884 Y86.169 E.01199
G1 X101.92 Y86.795 E.01445
G1 X101.905 Y87.012 E.00501
G1 X101.767 Y87.531 E.01237
G1 X101.523 Y88 E.01218
G1 X101.183 Y88.405 E.01218
G1 X100.763 Y88.728 E.01221
G1 X100.292 Y88.95 E.012
G1 X99.881 Y89.052 E.00976
G1 X99.316 Y89.077 E.01303
G1 X98.963 Y89.155 E.00833
G2 X98.651 Y89.479 I.426 J.723 E.01049
G1 X98.586 Y89.772 E.00691
G1 X98.586 Y102.086 E.2837
G1 X81.414 Y102.086 E.39563
G1 X81.414 Y89.772 E.2837
G1 X81.397 Y89.617 E.00359
G1 X81.256 Y89.331 E.00735
G1 X81.037 Y89.155 E.00647
G1 X80.752 Y89.08 E.00679
G1 X80.124 Y89.053 E.01448
G1 X79.622 Y88.918 E.01198
G1 X79.241 Y88.731 E.00978
G1 X78.817 Y88.405 E.01232
G1 X78.477 Y87.999 E.0122
G1 X78.235 Y87.537 E.01202
G1 X78.116 Y87.13 E.00977
G1 X78.068 Y86.589 E.01251
G1 X78.113 Y86.184 E.00939
G1 X78.276 Y85.664 E.01256
G1 X78.472 Y85.306 E.0094
G1 X78.822 Y84.889 E.01254
G1 X79.14 Y84.633 E.00941
G1 X79.615 Y84.385 E.01235
G1 X80.126 Y84.247 E.01219
G1 X80.75 Y84.22 E.01439
G1 X81.037 Y84.144 E.00684
G2 X81.349 Y83.82 I-.426 J-.723 E.01049
G1 X81.414 Y83.528 E.00689
G1 X81.415 Y78.107 E.1249
G1 X81.425 Y77.981 E.00291
G1 X81.585 Y77.914 E.004
G1 X98.441 Y77.915 E.38835
G3 X98.579 Y78.013 I.003 J.143 E.00417
G1 X98.586 Y83.529 E.12708
G1 X98.606 Y83.693 E.00381
G1 X98.744 Y83.969 E.00711
G1 X98.779 Y83.997 E.00103
M204 P2000
M204 T3000
G1 X98.779 Y83.997 F18000
G1 X98.998 Y83.818
M204 P500
G1 F1200
G1 X99.03 Y83.862 E.00125
G1 X99.269 Y83.944 E.00582
G1 X99.795 Y83.955 E.01212
G1 X100.375 Y84.085 E.01369
G1 X100.909 Y84.335 E.01358
G1 X101.368 Y84.686 E.01331
G1 X101.685 Y85.046 E.01105
G1 X101.982 Y85.56 E.01368
G3 X102.184 Y86.359 I-5.01 J1.696 E.01901
G1 X102.196 Y86.813 E.01046
G1 X102.18 Y87.057 E.00563
G1 X102.026 Y87.631 E.01369
G1 X101.755 Y88.154 E.01357
G1 X101.376 Y88.606 E.01359
G1 X100.908 Y88.966 E.0136
G1 X100.386 Y89.212 E.0133
G1 X99.921 Y89.328 E.01104
G1 X99.328 Y89.354 E.01368
G1 X99.089 Y89.402 E.00562
G1 X98.921 Y89.559 E.0053
G1 X98.863 Y89.772 E.00509
G1 X98.863 Y102.363 E.29009
G1 X81.137 Y102.363 E.40839
G1 X81.137 Y89.772 E.29009
G1 X81.114 Y89.634 E.00322
G1 X80.97 Y89.439 E.00558
G1 X80.74 Y89.357 E.00563
G1 X80.082 Y89.328 E.01517
G1 X79.524 Y89.179 E.01331
G1 X79.094 Y88.968 E.01104
G1 X78.624 Y88.606 E.01367
G1 X78.245 Y88.154 E.01359
G1 X77.977 Y87.642 E.01331
G1 X77.842 Y87.182 E.01105
G1 X77.79 Y86.586 E.01378
G1 X77.84 Y86.126 E.01066
G1 X78.02 Y85.555 E.01379
G1 X78.242 Y85.149 E.01066
G1 X78.627 Y84.69 E.0138
G1 X78.987 Y84.4 E.01065
G1 X79.514 Y84.125 E.0137
G1 X80.083 Y83.972 E.01357
G1 X80.738 Y83.943 E.01511
G2 X81.063 Y83.764 I-.061 J-.495 E.00876
G1 X81.137 Y83.528 E.0057
G1 X81.138 Y78.107 E.1249
G1 X81.163 Y77.876 E.00535
G1 X81.338 Y77.689 E.0059
G1 X81.551 Y77.637 E.00505
G1 X98.485 Y77.638 E.39015
G1 X98.736 Y77.732 E.00618
G1 X98.857 Y77.968 E.00611
G1 X98.863 Y83.529 E.12812
G1 X98.886 Y83.666 E.0032
G1 X98.976 Y83.788 E.00349
M204 P2000
G1 X98.976 Y83.788 F18000
G1 X99.195 Y83.617
M204 P500
;TYPE:External perimeter
G1 F1200
G1 X99.273 Y83.667 E.00213
G1 X99.829 Y83.679 E.01281
G1 X100.465 Y83.821 E.01501
G1 X101.054 Y84.096 E.01498
G1 X101.558 Y84.482 E.01463
G1 X101.911 Y84.883 E.01231
G1 X102.237 Y85.448 E.01503
G1 X102.429 Y86.053 E.01462
G3 X102.473 Y86.831 I-5.761 J.715 E.01797
G1 X102.455 Y87.103 E.00628
G1 X102.286 Y87.732 E.01501
G1 X101.987 Y88.309 E.01497
G1 X101.569 Y88.807 E.01498
G1 X101.054 Y89.204 E.01498
G1 X100.479 Y89.474 E.01464
G1 X99.961 Y89.603 E.0123
G1 X99.196 Y89.661 E.01768
G1 X99.14 Y89.772 E.00286
G1 X99.14 Y102.64 E.29647
G1 X80.86 Y102.64 E.42116
G1 X80.86 Y89.772 E.29647
M73 P2 R18
M73 Q2 S18
G1 X80.844 Y89.708 E.00152
G1 X80.728 Y89.633 E.00318
G1 X80.04 Y89.604 E.01587
G1 X79.427 Y89.44 E.01462
G1 X78.947 Y89.204 E.01232
G1 X78.431 Y88.807 E.015
G1 X78.013 Y88.309 E.01498
G1 X77.719 Y87.746 E.01463
G1 X77.568 Y87.234 E.0123
G1 X77.511 Y86.583 E.01506
G1 X77.568 Y86.069 E.01191
G1 X77.764 Y85.446 E.01505
G1 X78.012 Y84.992 E.01192
G1 X78.432 Y84.492 E.01504
G1 X78.835 Y84.167 E.01193
G1 X79.413 Y83.866 E.01501
G1 X80.04 Y83.696 E.01497
G1 X80.804 Y83.639 E.01765
G1 X80.86 Y83.528 E.00286
G1 X80.861 Y78.107 E.1249
G3 X80.973 Y77.64 I1.069 J.011 E.01116
G1 X81.206 Y77.436 E.00713
G1 X81.518 Y77.36 E.0074
G1 X98.514 Y77.361 E.39157
G1 X98.829 Y77.464 E.00764
G1 X99.056 Y77.688 E.00735
G1 X99.134 Y77.923 E.0057
G1 X99.14 Y83.528 E.12913
G1 X99.156 Y83.592 E.00152
G1 X99.163 Y83.597 E.0002
M204 P2000
G1 X99.404 Y83.663 F18000
G1 E-2.5 F4200
G1 Z.35 F720
G1 X97.906 Y78.026 F18000
G1 Z.2 F720
G1 E2.5 F2400
M204 P500
;TYPE:Solid infill
;WIDTH:0.321332
G1 F1200
G1 X98.345 Y78.464 E.01436
G1 X98.345 Y78.859 E.00914
G1 X97.637 Y78.15 E.0232
G1 X97.243 Y78.15 E.00912
G1 X98.345 Y79.253 E.03609
G1 X98.346 Y79.647 E.00912
G1 X96.849 Y78.15 E.04901
G1 X96.455 Y78.15 E.00912
G1 X98.346 Y80.041 E.06191
G1 X98.347 Y80.435 E.00912
G1 X96.062 Y78.15 E.07481
G1 X95.668 Y78.15 E.00912
G1 X98.347 Y80.83 E.08772
G1 X98.348 Y81.224 E.00912
G1 X95.274 Y78.15 E.10064
G1 X94.88 Y78.15 E.00912
G1 X98.348 Y81.618 E.11354
G1 X98.349 Y82.012 E.00912
G1 X94.487 Y78.15 E.12644
G1 X94.093 Y78.15 E.00912
G1 X98.349 Y82.406 E.13934
G1 X98.35 Y82.801 E.00914
G1 X93.699 Y78.15 E.15227
G1 X93.305 Y78.15 E.00912
G1 X98.475 Y83.32 E.16926
M204 P2000
G1 E-2.5 F4200
G1 X98.475 Y83.32 Z.35 F18000
G1 X100.527 Y84.584
G1 Z.2 F720
G1 E2.5 F2400
M204 P500
G1 F1200
G3 X101.267 Y85.346 I-9.15 J9.624 E.0246
G1 X101.51 Y85.768 E.01127
G1 X101.6 Y86.051 E.00687
G1 X100.097 Y84.548 E.04921
G2 X99.619 Y84.464 I-.571 J1.853 E.01126
G1 X101.688 Y86.533 E.06774
G3 X101.676 Y86.914 I-1.989 J.126 E.00884
G1 X99.214 Y84.452 E.0806
G3 X98.354 Y83.593 I.065 J-.924 E.03069
G1 X92.912 Y78.15 E.17818
G1 X92.518 Y78.15 E.00912
G1 X101.602 Y87.234 E.2974
G3 X101.502 Y87.528 I-.969 J-.165 E.00722
G1 X92.124 Y78.15 E.30703
G1 X91.73 Y78.15 E.00912
G1 X101.368 Y87.787 E.31552
G3 X101.202 Y88.016 I-.778 J-.389 E.00658
G1 X91.337 Y78.15 E.32299
G1 X90.943 Y78.15 E.00912
G1 X101.019 Y88.234 E.33001
G1 X100.801 Y88.402 E.00637
M73 P3 R18
M73 Q3 S18
G1 X90.549 Y78.15 E.33564
G1 X90.155 Y78.15 E.00912
G1 X100.566 Y88.56 E.34083
G1 X100.298 Y88.686 E.00686
G1 X89.762 Y78.15 E.34494
G1 X89.368 Y78.15 E.00912
G1 X99.998 Y88.78 E.34802
G3 X99.651 Y88.827 I-.313 J-1.023 E.00814
M73 P3 R17
G1 X88.974 Y78.15 E.34956
G1 X88.58 Y78.15 E.00912
G1 X99.273 Y88.843 E.35008
G2 X98.946 Y88.91 I.024 J.953 E.00777
G1 X88.187 Y78.15 E.35226
G1 X87.793 Y78.15 E.00912
M73 Q3 S17
G1 X98.696 Y89.053 E.35695
G2 X98.511 Y89.262 I.453 J.589 E.0065
G1 X87.399 Y78.15 E.3638
G1 X87.005 Y78.15 E.00912
G1 X98.385 Y89.53 E.37257
G2 X98.35 Y89.889 I1.265 J.303 E.00838
G1 X86.612 Y78.15 E.38431
G1 X86.218 Y78.15 E.00912
G1 X98.35 Y90.282 E.39719
G1 X98.35 Y90.676 E.00912
G1 X85.824 Y78.15 E.41009
G1 X85.43 Y78.15 E.00912
G1 X98.35 Y91.07 E.42299
G1 X98.35 Y91.463 E.0091
M73 P4 R17
M73 Q4 S17
G1 X85.037 Y78.15 E.43586
G1 X84.643 Y78.15 E.00912
G1 X98.35 Y91.857 E.44876
G1 X98.35 Y92.251 E.00912
G1 X84.249 Y78.15 E.46165
G1 X83.855 Y78.15 E.00912
G1 X98.35 Y92.645 E.47455
G1 X98.35 Y93.038 E.0091
G1 X83.462 Y78.15 E.48742
G1 X83.068 Y78.15 E.00912
G1 X98.35 Y93.432 E.50032
G1 X98.35 Y93.826 E.00912
G1 X82.674 Y78.15 E.51322
G1 X82.28 Y78.15 E.00912
G1 X98.35 Y94.22 E.52612
G1 X98.35 Y94.613 E.0091
G1 X81.887 Y78.15 E.53898
G1 X81.65 Y78.15 E.00549
G1 X81.65 Y78.307 E.00363
G1 X98.35 Y95.007 E.54674
G1 X98.35 Y95.401 E.00912
M73 P5 R17
M73 Q5 S17
G1 X81.65 Y78.701 E.54674
G1 X81.65 Y79.094 E.0091
G1 X98.35 Y95.795 E.54676
G1 X98.35 Y96.188 E.0091
G1 X81.65 Y79.488 E.54674
G1 X81.65 Y79.882 E.00912
G1 X98.35 Y96.582 E.54674
G1 X98.35 Y96.976 E.00912
G1 X81.65 Y80.276 E.54674
G1 X81.65 Y80.669 E.0091
G1 X98.35 Y97.369 E.54674
G1 X98.35 Y97.763 E.00912
G1 X81.65 Y81.063 E.54674
G1 X81.65 Y81.457 E.00912
G1 X98.35 Y98.157 E.54674
G1 X98.35 Y98.551 E.00912
G1 X81.65 Y81.85 E.54676
G1 X81.65 Y82.244 E.00912
M73 P6 R17
M73 Q6 S17
G1 X98.35 Y98.944 E.54674
G1 X98.35 Y99.338 E.00912
G1 X81.65 Y82.638 E.54674
G1 X81.65 Y83.031 E.0091
G1 X98.35 Y99.732 E.54676
G1 X98.35 Y100.126 E.00912
G1 X81.65 Y83.425 E.54676
G3 X81.612 Y83.781 I-1.32 J.042 E.00831
G1 X98.35 Y100.519 E.54799
G1 X98.35 Y100.913 E.00912
G1 X81.488 Y84.051 E.55205
G3 X81.298 Y84.254 I-.85 J-.607 E.00646
G1 X98.35 Y101.307 E.55828
G1 X98.35 Y101.701 E.00912
G1 X81.044 Y84.394 E.5666
G3 X80.713 Y84.457 I-.347 J-.915 E.00784
G1 X98.106 Y101.85 E.56943
G1 X97.713 Y101.85 E.0091
M73 P7 R17
M73 Q7 S17
G1 X80.336 Y84.474 E.56889
G2 X79.995 Y84.526 I-.026 J.959 E.00803
G1 X97.319 Y101.85 E.56717
G1 X96.925 Y101.85 E.00912
G1 X79.688 Y84.613 E.56432
G1 X79.429 Y84.748 E.00676
G1 X96.531 Y101.85 E.5599
G1 X96.138 Y101.85 E.0091
G1 X79.186 Y84.899 E.55498
G1 X78.987 Y85.058 E.0059
G1 X78.971 Y85.078 E.00059
G1 X95.744 Y101.85 E.54912
G1 X95.35 Y101.85 E.00912
G1 X78.792 Y85.292 E.54209
G2 X78.625 Y85.518 I.688 J.682 E.00653
G1 X94.956 Y101.85 E.53468
G1 X94.563 Y101.85 E.0091
G1 X78.488 Y85.776 E.52626
G1 X78.394 Y86.075 E.00726
M73 P8 R17
M73 Q8 S17
G1 X94.169 Y101.85 E.51646
G1 X93.775 Y101.85 E.00912
G1 X81.644 Y89.719 E.39716
G2 X80.77 Y88.845 I-.925 J.052 E.03132
G1 X78.326 Y86.401 E.08001
G2 X78.322 Y86.791 I1.195 J.206 E.00907
G1 X80.358 Y88.827 E.06666
G3 X79.881 Y88.744 I-.003 J-1.388 E.01127
G1 X78.223 Y87.085 E.0543
M204 P2000
G1 E-2.5 F4200
G1 X78.223 Y87.085 Z.35 F18000
G1 X81.525 Y89.994
G1 Z.2 F720
G1 E2.5 F2400
M204 P500
G1 F1200
G1 X93.382 Y101.85 E.38817
G1 X92.988 Y101.85 E.00912
G1 X81.65 Y90.512 E.3712
G1 X81.65 Y90.906 E.00912
G1 X92.594 Y101.85 E.3583
G1 X92.2 Y101.85 E.00912
G1 X81.65 Y91.3 E.3454
G1 X81.65 Y91.693 E.0091
G1 X91.807 Y101.85 E.33253
G1 X91.413 Y101.85 E.00912
M73 P8 R16
G1 X81.65 Y92.087 E.31963
G1 X81.65 Y92.481 E.00912
G1 X91.019 Y101.85 E.30673
G1 X90.625 Y101.85 E.00912
G1 X81.65 Y92.875 E.29383
G1 X81.65 Y93.268 E.0091
G1 X90.232 Y101.85 E.28097
G1 X89.838 Y101.85 E.00912
M73 Q8 S16
G1 X81.65 Y93.662 E.26807
G1 X81.65 Y94.056 E.00912
G1 X89.444 Y101.85 E.25517
G1 X89.05 Y101.85 E.00912
M73 P9 R16
M73 Q9 S16
G1 X81.65 Y94.45 E.24227
G1 X81.65 Y94.843 E.0091
G1 X88.657 Y101.85 E.2294
G1 X88.263 Y101.85 E.00912
G1 X81.65 Y95.237 E.2165
G1 X81.65 Y95.631 E.00912
G1 X87.869 Y101.85 E.2036
G1 X87.476 Y101.85 E.0091
G1 X81.65 Y96.024 E.19074
G1 X81.65 Y96.418 E.00912
G1 X87.082 Y101.85 E.17784
G1 X86.688 Y101.85 E.00912
G1 X81.65 Y96.812 E.16494
G1 X81.65 Y97.206 E.00912
G1 X86.294 Y101.85 E.15204
G1 X85.901 Y101.85 E.0091
G1 X81.65 Y97.599 E.13917
G1 X81.65 Y97.993 E.00912
G1 X85.507 Y101.85 E.12627
G1 X85.113 Y101.85 E.00912
G1 X81.65 Y98.387 E.11338
G1 X81.65 Y98.781 E.00912
G1 X84.719 Y101.85 E.10048
G1 X84.326 Y101.85 E.0091
G1 X81.65 Y99.174 E.08761
G1 X81.65 Y99.568 E.00912
G1 X83.932 Y101.85 E.07471
G1 X83.538 Y101.85 E.00912
G1 X81.65 Y99.962 E.06181
G1 X81.65 Y100.356 E.00912
G1 X83.144 Y101.85 E.04891
G1 X82.751 Y101.85 E.0091
G1 X81.65 Y100.749 E.03605
G1 X81.65 Y101.143 E.00912
G1 X82.357 Y101.85 E.02315
G1 X81.963 Y101.85 E.00912
G1 X81.525 Y101.412 E.01434
M204 P2000
M106 S84.15
;LAYER_CHANGE
;Z:0.35
;HEIGHT:0.15
;BEFORE_LAYER_CHANGE
G92 E0.0
;0.35
M201 X3999.71 Y3999.71

G1 E-2.5 F4200
G1 Z.35 F720
;AFTER_LAYER_CHANGE
;0.35
M74 W0.126691

M104 S220 ; set temperature
G1 Z.5
G1 X98.885 Y83.94 F18000
G1 Z.35 F720
G1 E2.5 F2400
;TYPE:Perimeter
;WIDTH:0.269999
G1 F4200
G1 X99.013 Y84.052 E.00252
G1 X99.258 Y84.117 E.00376
G1 X99.892 Y84.145 E.00941
G1 X100.389 Y84.275 E.00762
G1 X100.815 Y84.481 E.00702
G1 X101.257 Y84.821 E.00827
G1 X101.589 Y85.213 E.00762
G1 X101.821 Y85.628 E.00705
G1 X101.98 Y86.121 E.00768
G3 X102.008 Y87.029 I-2.981 J.546 E.01352
G1 X101.864 Y87.568 E.00827
G1 X101.61 Y88.057 E.00817
G1 X101.255 Y88.48 E.00819
G1 X100.818 Y88.816 E.00818
G1 X100.317 Y89.051 E.00821
G1 X99.816 Y89.166 E.00762
G1 X99.125 Y89.204 E.01026
G1 X98.929 Y89.3 E.00324
G1 X98.757 Y89.502 E.00393
G1 X98.689 Y89.777 E.0042
G1 X98.689 Y102.189 E.18408
G1 X81.311 Y102.189 E.25772
G1 X81.304 Y89.687 E.18541
G1 X81.205 Y89.439 E.00396
G1 X80.987 Y89.248 E.0043
G1 X80.742 Y89.183 E.00376
G1 X80.103 Y89.155 E.00949
G1 X79.687 Y89.053 E.00635
G1 X79.182 Y88.816 E.00827
G1 X78.745 Y88.48 E.00818
G1 X78.389 Y88.056 E.00821
G1 X78.149 Y87.601 E.00763
G1 X78.013 Y87.148 E.00701
G1 X77.964 Y86.588 E.00834
G1 X78.011 Y86.162 E.00636
G1 X78.18 Y85.624 E.00836
G1 X78.386 Y85.248 E.00636
G1 X78.745 Y84.82 E.00828
G1 X79.183 Y84.482 E.0082
G1 X79.648 Y84.262 E.00763
G1 X80.105 Y84.145 E.007
G1 X80.372 Y84.133 E.00396
G1 X80.875 Y84.096 E.00748
G1 X81.071 Y84 E.00324
G1 X81.243 Y83.798 E.00393
G1 X81.311 Y83.523 E.0042
G1 X81.311 Y78.077 E.08077
G1 X81.356 Y77.898 E.00274
G1 X81.54 Y77.811 E.00302
G1 X98.46 Y77.811 E.25093
G1 X98.632 Y77.884 E.00277
G1 X98.683 Y77.992 E.00177
G1 X98.694 Y83.599 E.08315
G1 X98.795 Y83.861 E.00416
G1 X98.856 Y83.915 E.00121
G1 X98.856 Y83.915 F18000
G1 X99.044 Y83.772
G1 F4200
G1 X99.071 Y83.809 E.00068
G1 X99.268 Y83.879 E.0031
G1 X99.928 Y83.908 E.0098
G1 X100.472 Y84.051 E.00834
G1 X100.941 Y84.278 E.00773
G1 X101.422 Y84.648 E.009
G1 X101.786 Y85.077 E.00834
G1 X102.04 Y85.532 E.00773
G1 X102.213 Y86.07 E.00838
G1 X102.275 Y86.591 E.00778
G1 X102.244 Y87.068 E.00709
G1 X102.087 Y87.655 E.00901
G1 X101.809 Y88.19 E.00894
G1 X101.421 Y88.653 E.00896
G1 X100.943 Y89.021 E.00895
G1 X100.395 Y89.277 E.00897
G1 X99.847 Y89.403 E.00834
G1 X99.273 Y89.421 E.00852
G1 X99.122 Y89.46 E.00231
G1 X98.991 Y89.574 E.00258
G1 X98.927 Y89.777 E.00316
G1 X98.927 Y102.427 E.1876
G1 X81.073 Y102.427 E.26478
G1 X81.073 Y89.777 E.1876
G1 X81.057 Y89.673 E.00156
G1 X80.929 Y89.491 E.0033
G1 X80.732 Y89.421 E.0031
G1 X80.069 Y89.392 E.00984
G1 X79.608 Y89.278 E.00704
G1 X79.057 Y89.021 E.00902
G1 X78.579 Y88.653 E.00895
G1 X78.191 Y88.189 E.00897
G1 X77.928 Y87.692 E.00834
G1 X77.778 Y87.193 E.00773
G1 X77.725 Y86.586 E.00904
G1 X77.777 Y86.113 E.00706
G1 X77.961 Y85.53 E.00907
